static/assets/img/logo.svg

<svg height="150pt" viewBox="0 0 150 150" width="150pt" xmlns="http://www.w3.org/2000/svg"><path d="m8.125 66v-48.825c0-1.2.975-2.175 2.175-2.175h82.65c1.2 0 2.175.975 2.175 2.175v115.65c0 1.2-.975 2.175-2.175 2.175h-82.65c-1.2 0-2.175-.975-2.175-2.175z" style="fill-rule:evenodd;fill:#fff;stroke-width:4;stroke:#414345;stroke-linecap:square;stroke-miterlimit:3"/><path d="m20.021 114.899q-3.841 0-3.841-2.186 0-1.713 2.127-1.713l2.895.295q3.545 0 4.786-3.959 1.004-3.367 1.004-12.052v-41.712q0-8.685-.827-11.374-.827-2.688-1.979-3.663-1.152-.974-2.984-.974l-2.895.236q-2.127 0-2.127-1.714 0-2.186 3.25-2.186 3.249 0 6.174.473 2.924.473 6.115.473 3.19 0 6.115-.473 2.924-.473 7.503-.473 4.579 0 9.837 1.478 5.259 1.477 8.863 4.194 7.503 5.613 7.503 14.889 0 10.28-8.449 17.725-2.717 2.363-6.026 4.017l19.202 27.887q3.249 4.786 7.149 5.79 1.122.295 2.835.473 3.014.295 3.014 1.979 0 1.684-3.25 1.684h-11.344q-4.076 0-7.385-5.318l-14.889-23.81q-2.008-3.131-3.84-4.46-1.831-1.33-5.642-1.33-3.811 0-6.647.177v16.012q0 8.921.798 11.491.797 2.57 1.949 3.545 1.152.975 3.043.975l2.836-.295q2.127 0 2.127 1.713 0 2.186-3.781 2.186-1.95 0-4.136-.355-7.09-1.122-12.141-.384-5.052.739-6.942.739zm16.247-73.203v32.377q3.84.414 7.385.414h3.722q5.731 0 9.69-3.9 4.608-4.549 4.608-12.407 0-9.453-5.731-14.948-5.376-5.199-13.825-5.199-3.013 0-4.431.827-1.418.827-1.418 2.836z" fill="#414345"/><path d="m103.561 66h35.628c1.482 0 2.686 1.204 2.686 2.686v63.628c0 1.482-1.204 2.686-2.686 2.686h-35.628c-1.482 0-2.686-1.204-2.686-2.686v-63.628c0-1.482 1.204-2.686 2.686-2.686z" fill="#fff"/><path d="m103.561 66h35.628c1.482 0 2.686 1.204 2.686 2.686v63.628c0 1.482-1.204 2.686-2.686 2.686h-35.628c-1.482 0-2.686-1.204-2.686-2.686v-63.628c0-1.482 1.204-2.686 2.686-2.686z" fill="none" stroke="#414345" stroke-linecap="square" stroke-miterlimit="2" stroke-width="4"/><path d="m102.875 135h37c1.104 0 2-.896 2-2v-1h-41v1c0 1.104.896 2 2 2z" fill="#414345"/><path d="m102.875 135h37c1.104 0 2-.896 2-2v-1h-41v1c0 1.104.896 2 2 2z" fill="none" stroke="#414345" stroke-linecap="square" stroke-miterlimit="2" stroke-width="4"/><path d="m102.875 66h37c1.104 0 2 .896 2 2v1h-41v-1c0-1.104.896-2 2-2z" fill="#414345"/><path d="m102.875 66h37c1.104 0 2 .896 2 2v1h-41v-1c0-1.104.896-2 2-2z" fill="none" stroke="#414345" stroke-linecap="square" stroke-miterlimit="2" stroke-width="4"/><path d="m125.923 91.808q1.746 0 3.134.287l-.55 3.685q-1.627-.359-2.871-.359-3.182 0-5.443 2.584-2.261 2.584-2.261 6.436v14.068h-3.972v-26.223h3.278l.454 4.857h.192q1.459-2.56 3.517-3.947 2.057-1.388 4.522-1.388z" fill="#414345"/></svg>

<?xml version="1.0" encoding="UTF-8" standalone="no"?><!-- Generator: Gravit.io --><svg xmlns="http://www.w3.org/2000/svg" xmlns:xlink="http://www.w3.org/1999/xlink" style="isolation:isolate" viewBox="0 0 150 150" width="150pt" height="150pt"><path d=" M 8.125 66 L 8.125 17.175 C 8.125 15.975 9.1 15 10.3 15 L 92.95 15 C 94.15 15 95.125 15.975 95.125 17.175 L 95.125 132.825 C 95.125 134.025 94.15 135 92.95 135 L 10.3 135 C 9.1 135 8.125 134.025 8.125 132.825 L 8.125 66 L 8.125 66 Z " fill-rule="evenodd" fill="rgb(255,255,255)" vector-effect="non-scaling-stroke" stroke-width="4" stroke="rgb(65,67,69)" stroke-linejoin="miter" stroke-linecap="square" stroke-miterlimit="3"/><path d=" M 20.021 114.899 L 20.021 114.899 L 20.021 114.899 Q 16.18 114.899 16.18 112.713 L 16.18 112.713 L 16.18 112.713 Q 16.18 111 18.307 111 L 18.307 111 L 21.202 111.295 L 21.202 111.295 Q 24.747 111.295 25.988 107.336 L 25.988 107.336 L 25.988 107.336 Q 26.992 103.969 26.992 95.284 L 26.992 95.284 L 26.992 53.572 L 26.992 53.572 Q 26.992 44.887 26.165 42.198 L 26.165 42.198 L 26.165 42.198 Q 25.338 39.51 24.186 38.535 L 24.186 38.535 L 24.186 38.535 Q 23.034 37.561 21.202 37.561 L 21.202 37.561 L 18.307 37.797 L 18.307 37.797 Q 16.18 37.797 16.18 36.083 L 16.18 36.083 L 16.18 36.083 Q 16.18 33.897 19.43 33.897 L 19.43 33.897 L 19.43 33.897 Q 22.679 33.897 25.604 34.37 L 25.604 34.37 L 25.604 34.37 Q 28.528 34.843 31.719 34.843 L 31.719 34.843 L 31.719 34.843 Q 34.909 34.843 37.834 34.37 L 37.834 34.37 L 37.834 34.37 Q 40.758 33.897 45.337 33.897 L 45.337 33.897 L 45.337 33.897 Q 49.916 33.897 55.174 35.375 L 55.174 35.375 L 55.174 35.375 Q 60.433 36.852 64.037 39.569 L 64.037 39.569 L 64.037 39.569 Q 71.54 45.182 71.54 54.458 L 71.54 54.458 L 71.54 54.458 Q 71.54 64.738 63.091 72.183 L 63.091 72.183 L 63.091 72.183 Q 60.374 74.546 57.065 76.2 L 57.065 76.2 L 76.267 104.087 L 76.267 104.087 Q 79.516 108.873 83.416 109.877 L 83.416 109.877 L 83.416 109.877 Q 84.538 110.172 86.251 110.35 L 86.251 110.35 L 86.251 110.35 Q 89.265 110.645 89.265 112.329 L 89.265 112.329 L 89.265 112.329 Q 89.265 114.013 86.015 114.013 L 86.015 114.013 L 74.671 114.013 L 74.671 114.013 Q 70.595 114.013 67.286 108.695 L 67.286 108.695 L 52.397 84.885 L 52.397 84.885 Q 50.389 81.754 48.557 80.425 L 48.557 80.425 L 48.557 80.425 Q 46.726 79.095 42.915 79.095 L 42.915 79.095 L 42.915 79.095 Q 39.104 79.095 36.268 79.272 L 36.268 79.272 L 36.268 95.284 L 36.268 95.284 Q 36.268 104.205 37.066 106.775 L 37.066 106.775 L 37.066 106.775 Q 37.863 109.345 39.015 110.32 L 39.015 110.32 L 39.015 110.32 Q 40.167 111.295 42.058 111.295 L 42.058 111.295 L 44.894 111 L 44.894 111 Q 47.021 111 47.021 112.713 L 47.021 112.713 L 47.021 112.713 Q 47.021 114.899 43.24 114.899 L 43.24 114.899 L 43.24 114.899 Q 41.29 114.899 39.104 114.544 L 39.104 114.544 L 39.104 114.544 Q 32.014 113.422 26.963 114.16 L 26.963 114.16 L 26.963 114.16 Q 21.911 114.899 20.021 114.899 Z  M 36.268 41.696 L 36.268 74.073 L 36.268 74.073 Q 40.108 74.487 43.653 74.487 L 43.653 74.487 L 47.375 74.487 L 47.375 74.487 Q 53.106 74.487 57.065 70.587 L 57.065 70.587 L 57.065 70.587 Q 61.673 66.038 61.673 58.18 L 61.673 58.18 L 61.673 58.18 Q 61.673 48.727 55.942 43.232 L 55.942 43.232 L 55.942 43.232 Q 50.566 38.033 42.117 38.033 L 42.117 38.033 L 42.117 38.033 Q 39.104 38.033 37.686 38.86 L 37.686 38.86 L 37.686 38.86 Q 36.268 39.687 36.268 41.696 L 36.268 41.696 L 36.268 41.696 Z " fill="rgb(65,67,69)"/><g><path d="M 103.561 66 L 139.189 66 C 140.671 66 141.875 67.204 141.875 68.686 L 141.875 132.314 C 141.875 133.796 140.671 135 139.189 135 L 103.561 135 C 102.079 135 100.875 133.796 100.875 132.314 L 100.875 68.686 C 100.875 67.204 102.079 66 103.561 66 Z" style="stroke:none;fill:#FFFFFF;stroke-miterlimit:10;"/><path d="M 103.561 66 L 139.189 66 C 140.671 66 141.875 67.204 141.875 68.686 L 141.875 132.314 C 141.875 133.796 140.671 135 139.189 135 L 103.561 135 C 102.079 135 100.875 133.796 100.875 132.314 L 100.875 68.686 C 100.875 67.204 102.079 66 103.561 66 Z" style="fill:none;stroke:#414345;stroke-width:4;stroke-linecap:square;stroke-miterlimit:2;"/><path d="M 102.875 135 L 139.875 135 C 140.979 135 141.875 134.104 141.875 133 L 141.875 132 L 100.875 132 L 100.875 133 C 100.875 134.104 101.771 135 102.875 135 Z" style="stroke:none;fill:#414345;stroke-linecap:square;stroke-miterlimit:2;"/><path d="M 102.875 135 L 139.875 135 C 140.979 135 141.875 134.104 141.875 133 L 141.875 132 L 100.875 132 L 100.875 133 C 100.875 134.104 101.771 135 102.875 135 Z" style="fill:none;stroke:#414345;stroke-width:4;stroke-linecap:square;stroke-miterlimit:2;"/><path d="M 102.875 66 L 139.875 66 C 140.979 66 141.875 66.896 141.875 68 L 141.875 69 L 100.875 69 L 100.875 68 C 100.875 66.896 101.771 66 102.875 66 Z" style="stroke:none;fill:#414345;stroke-linecap:square;stroke-miterlimit:2;"/><path d="M 102.875 66 L 139.875 66 C 140.979 66 141.875 66.896 141.875 68 L 141.875 69 L 100.875 69 L 100.875 68 C 100.875 66.896 101.771 66 102.875 66 Z" style="fill:none;stroke:#414345;stroke-width:4;stroke-linecap:square;stroke-miterlimit:2;"/><path d=" M 125.923 91.808 L 125.923 91.808 L 125.923 91.808 Q 127.669 91.808 129.057 92.095 L 129.057 92.095 L 128.507 95.78 L 128.507 95.78 Q 126.88 95.421 125.636 95.421 L 125.636 95.421 L 125.636 95.421 Q 122.454 95.421 120.193 98.005 L 120.193 98.005 L 120.193 98.005 Q 117.932 100.589 117.932 104.441 L 117.932 104.441 L 117.932 118.509 L 113.96 118.509 L 113.96 92.286 L 117.238 92.286 L 117.692 97.143 L 117.884 97.143 L 117.884 97.143 Q 119.343 94.583 121.401 93.196 L 121.401 93.196 L 121.401 93.196 Q 123.458 91.808 125.923 91.808 Z " fill="rgb(65,67,69)"/></g></svg>
